X:701
T:Lord Randall's Bride
S:As played by Adam Rennie on a 78rpm
Z:Nigel Gatherer
M:2/4
L:1/8
K:G
D | G>A Be | dB    B>e | dB       c/B/A/G/ | FA Ad |
    G>A Be | de/f/ g>e | d/e/d/B/ Ad/c/    | BG G :|
d | g>f   a/g/f/e/ | dB       B>d | g>f      e/f/g/e/ | Be e2 |
    de/f/ g>a      | b/a/g/f/ g>e | d/e/d/B/ Ad/c/    | BG G :|
<end>
<start>
